X: 20029
T: Jimmy Doyle's
R: polka
M: 2/4
K: Amajor
|:AA BA|GE E2|AA Bc|d2 cB|
A2 BA|GE E2|B/c/d ed|1 BA A2:|2 BA AB||
|:cA cA|d>c dB|c>B ce|dB GB|
cA cA|d>c dB|c/d/e dB|1 A2 AB:|2 A2 A2||

